!!!COM: Schubert, Franz
!!!CNT: Deutscher
!!!TXO: Deutsch
!!!LYR: Friedrich von Schiller
!!!OTL: "An Emma"
!!!OPS: Op. 58
!!!ONM: No. 2
!!!ODT: 1814/
!!NB: Vocal melody only encoded.
!!NB: Original key: F Major
**kern	**silbe
*staff1	*
*clefG2	*
*k[f#c#]	*
*M2/4	*
*MM[Massig]	*
=1	=1
2r	.
=2	=2
{4.d	{Weir
8d	in
=3	=3
8.f#	ne-
16f#	-bel-
12f#	-grau-
12g	|
12a	-er
=4	=4
4a	Fer-
4d	-ne
=5	=5
8.e	liegt
16f#	mir
8.g	das
16a	ver-
=6	=6
4.b	-gang-
8a	-ne
=7	=7
4f#}	Glu2ck,}
4r	.
=8	=8
{8.g#	{nur
16g#	an
8.b	ei-
16e	-nem
=9	=9
12a	scho2-
12b	|
12cc#	-nen
8.a	Ster-
16g#	-ne
=10	=10
[4f#	weilt
12f#]	|
12g#	|
12a	mit
=11	=11
4a	Lie-
8.e	-be,
16e	mit
=12	=12
8.dd	Lie-
16b	-be
8.g#	noch
16b	der
=13	=13
4a}	Blick;}
12r	.
{12a	{a-
12a#	-ber,
=14	=14
8.b	wie
16g	des
12g	Ster-
12a	|
12b	-nes
=15	=15
4e}	Pracht,}
12r	.
{12a	{ist
12a#	es
=16	=16
8.b	nur
16g	ein
12g	Schein
12a	|
12b	der
=17	=17
4e}	Nacht,}
12r	.
{12a	{ist
12g	es
=18	=18
8.f#	nur
16d	ein
8.c#	Schein
16f#	der
=19	=19
4B}	Nacht.}
4r	.
=20	=20
{4.dd	{Deck-
8f#	-te
=21	=21
4.b	dir
8b	der
=22	=22
[4b	lan-
12b]	|
12a	|
12f#	-ge
=23	=23
8gq	Schlum-
4f#	|
4f#}	-mer,}
=24	=24
{4.b	{dir
8d	der
=25	=25
4.g	Tod
8g	die
=26	=26
[4g	Au-
12g]	|
12f#	|
12e	-gen
=27	=27
4d}	zu,}
12r	.
{12d	{dich
12e	be-
=28	=28
8.f#	-sa2-
16d	-sse
8.g	doch
16c#	mein
=29	=29
eq	Kum-
8d	|
8d}	-mer,}
12r	.
{12d	mei-
12e	-nem
=30	=30
8.f#	Her-
16d	-zen
8.b	leb-
16a	-test
=31	=31
4f#}	du.}
12r	.
{12f#	{A-
12f#	-ber
=32	=32
2f#}	ach!}
=33	=33
8.r	.
{16f#	{du
12f#	lebst
12e	|
12f#	im
=34	=34
4aq	Licht,
2g}	|}
=35	=35
8.r	.
{16f#	{du
12f#	lebst
12a	|
12dd	im
=36	=36
4ddq	Licht,
2g}	|}
=37	=37
4r	.
{12g	{mei-
12a	|
12b-	-ner
=38	=38
12b-	Lie-
12a	|
12fn	-be
8.e	lebst
16a	du
=39	=39
gq	nicht,
4fn	|
12dd	mei-
12ccn	|
12b-	-ner
=40	=40
8.a	Lie-
16fn	-be
8.b-	lebst
16e	du
=41	=41
4fn}	nicht.}
4r	.
=42	=42
4r	.
12r	.
{12ccn	{Kann
12cc	der
=43	=43
8.ccn	Lie-
16a	-be
8.f#	su2ss
16dd	Ver-
=44	=44
ccnq	-lan-
8b-	|
8b-}	-gen,}
4r	.
=45	=45
{8b-	{Em-
8g	-me,
12r	.
12g	kamm's
12g#	ver-
=46	=46
8.a	-ga2ng-
16ccn	-lich
4cc}	sein?}
=47	=47
2r	.
=48	=48
4r	.
12r	.
{12a	{Was
12a	da-
=49	=49
8.dd	-him
16g	ist
8.g	und
16dd	ver-
=50	=50
4ee	-gan-
8g}	-gen,}
8r	.
=51	=51
{8f#	{Em-
8b}	-ma!}
12r	.
{12b	{kann's
12b	die
=52	=52
8.a#	Lie-
16cc#	-be
4cc#}	sein?}
=53	=53
{4.dd	{Ih-
8d	-rer
=54	=54
f#q	Flam-
4e	|
4e	-me
=55	=55
4.dd	Him-
8f#	-mels-
=56	=56
aq	-glut,
2g}	|}
=57	=57
{aq	{stirbt
8g	|
8g	sie
12r	.
12g	wie
12f#	ein
=58	=58
4.e	ir-
8e#	-disch
=59	=59
2f#}	Gut?}
==	==
*-	*-
